X:650
T: Paddy from Clare
T: Peaidi a' Chl\'air
S: B.Breathnach:"Ceol Rince na hEireann" IV/108
Z: B.Black
L: 1/8
M: 4/4
R: reel
K: D
dcdB ADFA|dcdf edBc|dedB ADFA|dgfg edBc|
dcdB ADFA|dcdf edBc|de (3dcB ADFA|dgfg edBA ||
Bdef gfge|defg ag a2|Bdef gfga|(3bag af geed|
(3Bcd ef gfge|defg a2 ga|(3bag af gfed|efgf edBc ||
